findly-builder/apps/searchassist/src/assets/images/search_gray.svg

<svg width="16" height="16" viewBox="0 0 16 16" fill="none" xmlns="http://www.w3.org/2000/svg">
<rect width="16" height="16" fill="#D8D8D8" fill-opacity="0.01"/>
<path fill-rule="evenodd" clip-rule="evenodd" d="M7.2974 1.7998C4.26116 1.7998 1.7998 4.26774 1.7998 7.31209C1.7998 10.3564 4.26116 12.8244 7.2974 12.8244C8.62518 12.8244 9.84301 12.3524 10.7931 11.5667L13.342 14.0909L13.38 14.1252C13.5892 14.2962 13.8978 14.2828 14.0914 14.0863C14.297 13.8775 14.2949 13.5411 14.0867 13.3349L11.5423 10.8151C12.325 9.86273 12.795 8.64244 12.795 7.31209C12.795 4.26774 10.3336 1.7998 7.2974 1.7998ZM7.2974 2.86241C9.74834 2.86241 11.7352 4.8546 11.7352 7.31209C11.7352 9.76957 9.74834 11.7618 7.2974 11.7618C4.84646 11.7618 2.85958 9.76957 2.85958 7.31209C2.85958 4.8546 4.84646 2.86241 7.2974 2.86241Z" fill="#BDC1C6"/>
</svg>

<svg width="16" height="16" fill="none" xmlns="http://www.w3.org/2000/svg"><path fill="#D8D8D8" fill-opacity=".01" d="M0 0h16v16H0z"/><path fill-rule="evenodd" clip-rule="evenodd" d="M7.297 1.8C4.261 1.8 1.8 4.268 1.8 7.312c0 3.044 2.461 5.512 5.497 5.512a5.466 5.466 0 0 0 3.496-1.257l2.549 2.524.038.034c.21.171.518.158.711-.039a.532.532 0 0 0-.004-.751l-2.545-2.52a5.498 5.498 0 0 0 1.253-3.503c0-3.044-2.461-5.512-5.498-5.512Zm0 1.062a4.444 4.444 0 0 1 4.438 4.45 4.444 4.444 0 0 1-4.438 4.45 4.444 4.444 0 0 1-4.437-4.45 4.444 4.444 0 0 1 4.437-4.45Z" fill="#BDC1C6"/></svg>
